X:294
%%etbk:tnset id:91,pos:2,rep:3x,ant:
%%etbk:pldat 2013-10-21T18:19,2013-05-22T16:10
T: Gan Ainm
Z: Piano Box Version by Martin Fleischmann
H: Created 2013-02-19 /  Last Modified 2013-02-19
M: 6/8
L: 1/8
R: jig
K: Dmaj
|: "D"!3!F2F {A}FED | !3!F!5!AA A2G | !3!FGF FED | "G"!3!G!5!BB BA!3!G |
"D"!2!FGA !2!EFG | !1!D2!3!F {A}FED | "G"!3!G2!5!B !4!A!2!F!1!D | "A"!3!FEE {G}EDE:|
|: "D"!3!F2F {A}FED | !3!F!5!A!1!A A2!4!d | "G"!2!B!4!dd !1!A!4!dd | !2!B2B !1!A!3!F!2!E |
"D"!3!F2F {A}FED | !3!F!5!A!1!A A2!4!d | !2!B!1!AA !1!A!3!F!1!D | "A"!3!FEE EDE:|


